packages/ui-solid/icons/link_28.svg

<svg width="28" height="28" viewBox="0 0 28 28" fill="none" xmlns="http://www.w3.org/2000/svg">
<path fill-rule="evenodd" clip-rule="evenodd" d="M20.8736 6.93957C18.7986 4.8919 15.4632 4.8919 13.3883 6.93957L11.5039 8.79912C11.1501 9.14825 10.5803 9.14447 10.2311 8.79068C9.882 8.43689 9.88577 7.86705 10.2396 7.51792L12.1239 5.65837C14.8999 2.91897 19.3619 2.91897 22.1379 5.65837C24.9664 8.44961 24.9664 13.0147 22.1379 15.806L20.3711 17.5495C20.0173 17.8987 19.4474 17.8949 19.0983 17.5411C18.7492 17.1873 18.7529 16.6175 19.1067 16.2683L20.8736 14.5248C22.9878 12.4384 22.9878 9.02598 20.8736 6.93957ZM8.90434 10.1C9.25348 10.4538 9.2497 11.0236 8.89591 11.3728L7.12908 13.1163C5.01482 15.2027 5.01482 18.6151 7.12907 20.7015C9.20406 22.7492 12.5394 22.7492 14.6144 20.7015L16.4987 18.842C16.8525 18.4929 17.4224 18.4966 17.7715 18.8504C18.1206 19.2042 18.1169 19.774 17.7631 20.1232L15.8787 21.9827C13.1028 24.7221 8.6407 24.7221 5.86474 21.9827C3.03626 19.1915 3.03627 14.6264 5.86475 11.8351L7.63158 10.0916C7.98537 9.74243 8.55521 9.74621 8.90434 10.1ZM17.2499 10.6147C17.599 10.9685 17.5953 11.5384 17.2415 11.8875L12.0255 17.0348C11.6717 17.3839 11.1019 17.3802 10.7527 17.0264C10.4036 16.6726 10.4074 16.1027 10.7612 15.7536L15.9771 10.6063C16.3309 10.2572 16.9008 10.2609 17.2499 10.6147Z" fill="#007AFF"/>
</svg>

<svg xmlns="http://www.w3.org/2000/svg" width="28" height="28" fill="none"><path fill="currentColor" fill-rule="evenodd" d="M20.874 6.94a5.33 5.33 0 0 0-7.486 0L11.504 8.8a.9.9 0 0 1-1.264-1.282l1.884-1.86a7.128 7.128 0 0 1 10.014 10.148l-1.767 1.743a.9.9 0 1 1-1.264-1.28l1.767-1.744a5.33 5.33 0 0 0 0-7.585M8.904 10.1a.9.9 0 0 1-.008 1.273l-1.767 1.743a5.328 5.328 0 1 0 7.485 7.586l1.885-1.86a.9.9 0 0 1 1.264 1.281l-1.884 1.86A7.128 7.128 0 1 1 5.865 11.835l1.767-1.743a.9.9 0 0 1 1.272.008m8.346.515a.9.9 0 0 1-.009 1.272l-5.216 5.148a.9.9 0 0 1-1.264-1.281l5.216-5.148a.9.9 0 0 1 1.273.009" clip-rule="evenodd"/></svg>
